icons/op-export-xls-descr-24.svg

<svg width="24" height="24" viewBox="0 0 24 24" fill="none" xmlns="http://www.w3.org/2000/svg">
<path d="M8.6802 17.5625L9.62437 16.0625L8.74112 14.6562H9.25888C9.28934 14.6562 9.3198 14.6562 9.3198 14.6875C9.35025 14.6875 9.35025 14.6875 9.38071 14.7188L10.0203 15.7812V15.7188C10.0508 15.7188 10.0508 15.6875 10.0508 15.6875L10.6599 14.7188C10.6904 14.6875 10.7208 14.6562 10.7513 14.6562H11.269L10.3553 16.0312L11.2995 17.5625H10.7513C10.7208 17.5625 10.6904 17.5312 10.6904 17.5312L10.6294 17.4688L9.95939 16.3438V16.4062L9.92893 16.4375L9.3198 17.4688C9.28934 17.4688 9.28934 17.5 9.25888 17.5312C9.22843 17.5312 9.19797 17.5625 9.16751 17.5625H8.6802ZM11.6041 17.5625V14.6562H12.1218V17.0938H13.2487V17.5625H11.6041ZM13.401 17.1875L13.5533 16.9375C13.5533 16.9375 13.5838 16.9062 13.6142 16.9062C13.6142 16.875 13.6447 16.875 13.6751 16.875C13.7056 16.875 13.736 16.875 13.7665 16.9062C13.797 16.9375 13.8579 16.9688 13.9188 17C13.9492 17.0312 14.0102 17.0625 14.1015 17.0938C14.1624 17.125 14.2538 17.125 14.3452 17.125C14.4975 17.125 14.5888 17.0938 14.6802 17.0312C14.7716 16.9688 14.802 16.8438 14.802 16.7188C14.802 16.6562 14.802 16.5938 14.7411 16.5312C14.7107 16.4688 14.6497 16.4375 14.6193 16.4062C14.5279 16.375 14.467 16.3438 14.4061 16.3125C14.3147 16.3125 14.2234 16.2812 14.1624 16.25C14.0711 16.2188 14.0102 16.1875 13.9188 16.1562C13.8274 16.125 13.7665 16.0625 13.7056 16C13.6447 15.9375 13.6142 15.875 13.5533 15.7812C13.5228 15.6875 13.4924 15.5938 13.4924 15.4688C13.4924 15.3438 13.5228 15.25 13.5533 15.1562C13.6142 15.0312 13.6751 14.9688 13.736 14.875C13.8274 14.8125 13.9188 14.75 14.0406 14.6875C14.1624 14.6562 14.2843 14.625 14.4365 14.625C14.5888 14.625 14.7411 14.6562 14.8934 14.7188C15.0457 14.75 15.1675 14.8438 15.2589 14.9375L15.1371 15.1875L15.0761 15.25H15.0152C14.9848 15.25 14.9543 15.25 14.9239 15.2188C14.8934 15.2188 14.8325 15.1875 14.802 15.1562C14.7716 15.125 14.7107 15.125 14.6497 15.0938C14.5888 15.0625 14.5279 15.0625 14.4365 15.0625C14.3756 15.0625 14.3147 15.0625 14.2538 15.0938C14.1929 15.125 14.1624 15.125 14.1015 15.1562C14.0711 15.1875 14.0406 15.25 14.0406 15.2812C14.0102 15.3125 14.0102 15.375 14.0102 15.4375C14.0102 15.5 14.0102 15.5625 14.0711 15.5938C14.1015 15.6562 14.132 15.6875 14.1929 15.7188C14.2538 15.75 14.3452 15.7812 14.4061 15.8125C14.4975 15.8125 14.5584 15.8438 14.6497 15.875C14.7411 15.9062 14.802 15.9375 14.8934 15.9688C14.9543 16.0312 15.0457 16.0625 15.1066 16.125C15.1675 16.1875 15.198 16.25 15.2589 16.3438C15.2893 16.4062 15.3198 16.5312 15.3198 16.6562C15.3198 16.7812 15.2893 16.9062 15.2284 17C15.198 17.125 15.1371 17.2188 15.0457 17.3125C14.9543 17.4062 14.8629 17.4688 14.7411 17.5C14.6193 17.5625 14.467 17.5938 14.3147 17.5938C14.2234 17.5938 14.132 17.5625 14.0711 17.5625L13.797 17.4688C13.736 17.4375 13.6447 17.4062 13.5838 17.3438C13.5228 17.3125 13.4619 17.25 13.401 17.1875ZM9.13706 11.9062H14.7716V12.875H9.13706V11.9062ZM9.16751 10H14.802V11H9.16751V10ZM9.16751 8.09375H14.802V9.09375H9.16751V8.09375ZM17.9695 7.6875L14.3756 4H6V20H18V7.6875H17.9695ZM7.40102 18.5625V5.4375H13.797L16.599 8.3125V18.5625H7.40102Z" fill="black"/>
</svg>

<svg xmlns="http://www.w3.org/2000/svg" width="24" height="24" viewBox="0 0 24 24"><path d="m8.68 17.562.944-1.5-.883-1.406h.518c.03 0 .061 0 .061.032.03 0 .03 0 .061.031l.639 1.062v-.062c.031 0 .031-.031.031-.031l.609-.969c.03-.031.061-.063.091-.063h.518l-.914 1.375.945 1.531h-.549c-.03 0-.061-.031-.061-.031l-.061-.062-.67-1.125v.062l-.03.032-.609 1.031c-.031 0-.031.031-.061.062-.031 0-.061.031-.091.031H8.68Zm2.924 0v-2.906h.518v2.438h1.127v.468h-1.645Zm1.797-.374.152-.25s.031-.032.061-.032c0-.031.031-.031.061-.031.031 0 .061 0 .092.031.03.032.091.063.152.094a.5.5 0 0 0 .182.094.587.587 0 0 0 .244.031.532.532 0 0 0 .335-.094c.092-.062.122-.187.122-.312 0-.063 0-.125-.061-.188-.03-.062-.091-.093-.122-.125a1.379 1.379 0 0 1-.213-.094.57.57 0 0 1-.244-.062c-.091-.031-.152-.062-.243-.094-.092-.031-.152-.094-.213-.156s-.092-.125-.153-.219c-.03-.093-.061-.187-.061-.312s.031-.219.061-.313c.061-.125.122-.187.183-.281.091-.063.183-.125.305-.187.121-.032.243-.063.396-.063.152 0 .304.031.456.094a.721.721 0 0 1 .366.219l-.122.25-.061.062h-.061c-.03 0-.061 0-.091-.031a.222.222 0 0 1-.122-.063c-.03-.031-.091-.031-.152-.062-.061-.032-.122-.032-.213-.032-.061 0-.122 0-.183.032-.061.031-.092.031-.153.062a.244.244 0 0 0-.06.125c-.031.031-.031.094-.031.157 0 .062 0 .124.061.156a.24.24 0 0 0 .122.125c.061.031.152.062.213.093.092 0 .152.032.244.063.091.031.152.063.243.094.061.062.153.093.214.156s.091.125.152.219c.03.062.061.187.061.312s-.031.25-.092.344a.645.645 0 0 1-.182.312.63.63 0 0 1-.305.188.959.959 0 0 1-.426.094c-.092 0-.183-.032-.244-.032l-.274-.093c-.061-.031-.152-.063-.213-.125-.061-.032-.122-.094-.183-.156Zm-4.264-5.282h5.635v.969H9.137v-.969ZM9.168 10h5.634v1H9.168v-1Zm0-1.906h5.634v1H9.168v-1Zm8.802-.406L14.376 4H6v16h12V7.688h-.03ZM7.401 18.562V5.438h6.396l2.802 2.874v10.25H7.401Z"/></svg>
